.icons/Gruvbox-Plus-Dark/apps/16/coin.svg

<svg width="16" height="16" version="1.1" xmlns="http://www.w3.org/2000/svg">
  <defs>
    <style id="current-color-scheme" type="text/css">.ColorScheme-Text { color:#ebdbb2; } .ColorScheme-Highlight { color:#458588; }</style>
  </defs>
  <path class="ColorScheme-Text" d="m6 2c-3.333 0-6 2.667-6 6s2.667 6 6 6 6-2.667 6-6-2.667-6-6-6zm3.604 0.209c1.921 1.3 3.07 3.471 3.063 5.791 7e-3 2.32-1.141 4.492-3.063 5.792 2.534-0.735 4.396-2.993 4.396-5.792 0-2.8-1.862-5.057-4.396-5.792v1e-3zm2 0c1.921 1.3 3.07 3.471 3.063 5.791 7e-3 2.32-1.141 4.492-3.063 5.792 2.534-0.735 4.396-2.993 4.396-5.792 0-2.8-1.862-5.057-4.396-5.792v1e-3zm-5.812 1.124h0.749v1.063c0.47 0.054 0.897 0.295 1.188 0.667 0.266 0.333 0.48 0.88 0.48 1.478h-1.418c0-0.333-0.054-0.674-0.186-0.874-0.134-0.2-0.277-0.209-0.542-0.209-0.201 0-0.391 0.071-0.459 0.271-0.095 0.21-0.145 0.437-0.146 0.667 0 0.2 0.079 0.409 0.147 0.541 0.132 0.134 0.333 0.32 0.666 0.521 0.667 0.266 1.13 0.542 1.396 0.875 0.333 0.334 0.458 0.797 0.458 1.396 0 0.534-0.125 1-0.458 1.334-0.334 0.333-0.737 0.536-1.271 0.604v1h-0.667v-1c-0.534-0.068-1-0.266-1.333-0.667-0.333-0.333-0.521-0.87-0.521-1.604h1.333c0 0.401 0.05 0.737 0.25 0.937 0.133 0.2 0.339 0.334 0.605 0.334 0.265 0 0.408-0.07 0.541-0.271 0.133-0.133 0.187-0.401 0.187-0.667s-0.054-0.466-0.186-0.666c-0.134-0.134-0.34-0.326-0.605-0.459-0.667-0.265-1.125-0.541-1.459-0.875-0.333-0.333-0.478-0.797-0.478-1.396 0-0.533 0.145-1 0.478-1.333 0.334-0.333 0.717-0.604 1.25-0.604l1e-3 -1.063z" fill="currentColor"/>
</svg>

<svg width="16" height="16" version="1.1" xmlns="http://www.w3.org/2000/svg">
  <defs>
    <style type="text/css" id="current-color-scheme">.ColorScheme-Text { color:#ebdbb2; } .ColorScheme-Highlight { color:#458588; }</style>
  </defs>
 <path class="ColorScheme-Text" fill="currentColor" d="M 6 2 C 2.667 2 0 4.667 0 8 C 0 11.333 2.667 14 6 14 C 9.333 14 12 11.333 12 8 C 12 4.667 9.333 2 6 2 Z M 9.604 2.209 C 11.525 3.509 12.674 5.68 12.667 8 C 12.674 10.32 11.526 12.492 9.604 13.792 C 12.138 13.057 14 10.799 14 8 C 14 5.2 12.138 2.943 9.604 2.208 L 9.604 2.209 Z M 11.604 2.209 C 13.525 3.509 14.674 5.68 14.667 8 C 14.674 10.32 13.526 12.492 11.604 13.792 C 14.138 13.057 16 10.799 16 8 C 16 5.2 14.138 2.943 11.604 2.208 L 11.604 2.209 Z M 5.792 3.333 L 6.541 3.333 L 6.541 4.396 C 7.011 4.45 7.438 4.691 7.729 5.063 C 7.995 5.396 8.209 5.943 8.209 6.541 L 6.791 6.541 C 6.791 6.208 6.737 5.867 6.605 5.667 C 6.471 5.467 6.328 5.458 6.063 5.458 C 5.862 5.458 5.672 5.529 5.604 5.729 C 5.509 5.939 5.459 6.166 5.458 6.396 C 5.458 6.596 5.537 6.805 5.605 6.937 C 5.737 7.071 5.938 7.257 6.271 7.458 C 6.938 7.724 7.401 8 7.667 8.333 C 8 8.667 8.125 9.13 8.125 9.729 C 8.125 10.263 8 10.729 7.667 11.063 C 7.333 11.396 6.93 11.599 6.396 11.667 L 6.396 12.667 L 5.729 12.667 L 5.729 11.667 C 5.195 11.599 4.729 11.401 4.396 11 C 4.063 10.667 3.875 10.13 3.875 9.396 L 5.208 9.396 C 5.208 9.797 5.258 10.133 5.458 10.333 C 5.591 10.533 5.797 10.667 6.063 10.667 C 6.328 10.667 6.471 10.597 6.604 10.396 C 6.737 10.263 6.791 9.995 6.791 9.729 C 6.791 9.463 6.737 9.263 6.605 9.063 C 6.471 8.929 6.265 8.737 6 8.604 C 5.333 8.339 4.875 8.063 4.541 7.729 C 4.208 7.396 4.063 6.932 4.063 6.333 C 4.063 5.8 4.208 5.333 4.541 5 C 4.875 4.667 5.258 4.396 5.791 4.396 L 5.792 3.333 Z"/>
</svg>
